!!!OTL: 191a. Des Soldaten Heimkehr.
!!!ARE: Europa, Mitteleuropa, Deutschland, Oldenburg
!!!SCT: E0191
!!!TXL: @@DE
!!!YEM: Copyright 1995, estate of Helmut Schaffrath.
**kern	**text
*ICvox	*
*M6/8	*
*k[f#]	*
*G:	*
!LO:TX:a:t=Ziemlich bewegt.	!
!LO:TX:a:t=Mel. aus dem Oldenburgiſchen. Erk III. 1, 55.	!
{8d	Sol-
=1	=1
4g	-dat
8g	kam
8bL	aus
8aJ	.
8g	dem
=2	=2
(4a	Krie-
8dd)	.
8ddL	-ge,
8ccJ	.
8a	hur-
=3	=3
4.b	-rah!
4r}	.
{8d	Sol-
=4	=4
4g	-dat
8g	kam
8bL	aus
8aJ	.
8g	dem
=5	=5
(4a	Krie-
8dd)	.
8ddL	-ge,
8ccJ	.
8a	hur-
=6	=6
4.b	-rah!
4r}	.
{8b/	wohl
=7	=7
4b/	ganʒ
8g	ʒer-
(8g	-riſ-
8a)	-ſen
8b	und
=8	=8
4dd	noch
8cc	viel
4cc}	mehr
{8cc	Mein
=9	=9
4cc	lie-
8a	-ber
(8a	Sol-
8b/)	-dat,
8cc	wo
=10	=10
4ee	kommt
8dd	er
4dd	her?
8cc	Hur-
=11	=11
8bL	-rah,
8ddJ}	.
{8b	hur-
8a/L	-rah!
8ccJ	.
8a	hur-
=12	=12
4.g	-rah!
4.ee^	Hur-
=13	=13
4dd	-rah,
8dd	hur-
8ddL	-rah,
8ccJ	.
8a	hur-
=14	=14
4.g	-rah!
4r}	.
==	==
!!!AGN: erzaehlendes Volks - Lied, Sage, Familien - Geschichte
!!!ONB: ESAC (Essen Associative Code) Database: ERK1
!!!AMT: compound duple
!!!AIN: vox
!!!EED: Helmut Schaffrath
!!!EEV: 1.0
!!!GTL: Denkwuerdige Familiengeschichten
!!!URL-scan: https://rosdok.uni-rostock.de/mcrviewer/recordIdentifier/rosdok_ppn745146120/iview2/phys_0649.iview2?x=-128.7727644188933&y=458.33534326637164&scale=0.5870222003877484&rotation=0&layout=singlePageLayout
!!!ENC: Anna Maria Matuszewska
!!!EEV: 2024/05/12
*-	*-
